src/assets/logos/S1_barcelona.svg

<?xml version="1.0" encoding="UTF-8" standalone="no"?>
<!-- Created with Inkscape (http://www.inkscape.org/) -->

<svg
   xmlns:dc="http://purl.org/dc/elements/1.1/"
   xmlns:cc="http://creativecommons.org/ns#"
   xmlns:rdf="http://www.w3.org/1999/02/22-rdf-syntax-ns#"
   xmlns:svg="http://www.w3.org/2000/svg"
   xmlns="http://www.w3.org/2000/svg"
   xmlns:sodipodi="http://sodipodi.sourceforge.net/DTD/sodipodi-0.dtd"
   xmlns:inkscape="http://www.inkscape.org/namespaces/inkscape"
   width="64"
   height="64"
   id="svg21844"
   sodipodi:version="0.32"
   inkscape:version="0.47 r22583"
   sodipodi:docname="S1_barcelona.svg"
   inkscape:output_extension="org.inkscape.output.svg.inkscape"
   version="1.0">
  <defs
     id="defs21846">
    <inkscape:perspective
       sodipodi:type="inkscape:persp3d"
       inkscape:vp_x="0 : 32 : 1"
       inkscape:vp_y="0 : 1000 : 0"
       inkscape:vp_z="64 : 32 : 1"
       inkscape:persp3d-origin="32 : 21.333333 : 1"
       id="perspective21852" />
  </defs>
  <sodipodi:namedview
     id="base"
     pagecolor="#ffffff"
     bordercolor="#666666"
     borderopacity="1.0"
     inkscape:pageopacity="0.0"
     inkscape:pageshadow="2"
     inkscape:zoom="8.703125"
     inkscape:cx="-0.80430899"
     inkscape:cy="32"
     inkscape:current-layer="layer1"
     showgrid="true"
     inkscape:document-units="px"
     inkscape:grid-bbox="true"
     inkscape:window-width="1059"
     inkscape:window-height="757"
     inkscape:window-x="20"
     inkscape:window-y="20"
     showguides="true"
     inkscape:guide-bbox="true"
     inkscape:window-maximized="0" />
  <metadata
     id="metadata21849">
    <rdf:RDF>
      <cc:Work
         rdf:about="">
        <dc:format>image/svg+xml</dc:format>
        <dc:type
           rdf:resource="http://purl.org/dc/dcmitype/StillImage" />
      </cc:Work>
    </rdf:RDF>
  </metadata>
  <g
     id="layer1"
     inkscape:label="Layer 1"
     inkscape:groupmode="layer"
     transform="translate(-0.7873347,136.12828)">
    <rect
       style="opacity:1;fill:#f47216;fill-opacity:1;fill-rule:nonzero;stroke:none;stroke-width:7.08599996999999960;stroke-linecap:round;stroke-linejoin:round;stroke-miterlimit:4;stroke-dasharray:7.08600000000000030, 14.17200000000000100;stroke-dashoffset:0;stroke-opacity:1"
       id="rect21854"
       width="64"
       height="64"
       x="0.78733474"
       y="-136.12828" />
    <path
       style="font-size:47.52000046px;font-style:normal;font-variant:normal;font-weight:bold;font-stretch:normal;text-align:start;line-height:125%;writing-mode:lr-tb;text-anchor:start;fill:#ffffff;fill-opacity:1;stroke:none;stroke-width:1px;stroke-linecap:butt;stroke-linejoin:miter;stroke-opacity:1;font-family:Helvetica Neue;-inkscape-font-specification:Helvetica Neue Bold"
       d="M 12.028446,-98.146144 L 4.8054061,-98.146144 C 4.773725,-96.055254 5.1538846,-94.249496 5.9458861,-92.728864 C 6.737883,-91.208219 7.799162,-89.95686 9.1297261,-88.974784 C 10.491959,-87.992702 12.044278,-87.279903 13.786686,-86.836384 C 15.560754,-86.361184 17.382352,-86.123584 19.251486,-86.123583 C 21.564108,-86.123584 23.591626,-86.392864 25.334046,-86.931424 C 27.108103,-87.469983 28.581221,-88.214462 29.753406,-89.164864 C 30.957219,-90.14694 31.860098,-91.303259 32.462046,-92.633824 C 33.063937,-93.964376 33.364897,-95.405815 33.364926,-96.958144 C 33.364897,-98.858932 32.953057,-100.41125 32.129406,-101.6151 C 31.337379,-102.85061 30.38698,-103.83269 29.278206,-104.56134 C 28.169382,-105.28997 27.044743,-105.81268 25.904286,-106.1295 C 24.795465,-106.47796 23.924266,-106.71556 23.290686,-106.8423 C 21.168109,-107.38084 19.44155,-107.82436 18.111006,-108.17286 C 16.812113,-108.52132 15.782514,-108.8698 15.022206,-109.2183 C 14.293556,-109.56676 13.802516,-109.94692 13.549086,-110.35878 C 13.295637,-110.7706 13.168917,-111.30916 13.168926,-111.97446 C 13.168917,-112.70308 13.327316,-113.305 13.644126,-113.78022 C 13.960916,-114.2554 14.356915,-114.6514 14.832126,-114.96822 C 15.338994,-115.285 15.893394,-115.50676 16.495326,-115.6335 C 17.097233,-115.76019 17.699152,-115.82355 18.301086,-115.82358 C 19.219791,-115.82355 20.05931,-115.74435 20.819646,-115.58598 C 21.611628,-115.42756 22.308588,-115.15828 22.910526,-114.77814 C 23.512426,-114.39796 23.987626,-113.87524 24.336126,-113.20998 C 24.716265,-112.54468 24.938025,-111.70516 25.001406,-110.69142 L 32.224446,-110.69142 C 32.224418,-112.65556 31.844258,-114.31876 31.083966,-115.68102 C 30.3553,-117.07491 29.357381,-118.21539 28.090206,-119.10246 C 26.822983,-119.98947 25.365705,-120.62307 23.718366,-121.00326 C 22.102668,-121.41507 20.407789,-121.62099 18.633726,-121.62102 C 17.113073,-121.62099 15.592434,-121.41507 14.071806,-121.00326 C 12.551157,-120.59139 11.188919,-119.95779 9.9850861,-119.10246 C 8.781241,-118.24707 7.799162,-117.16995 7.0388461,-115.8711 C 6.3102034,-114.60388 5.9458838,-113.09908 5.9458861,-111.3567 C 5.9458838,-109.80436 6.2310035,-108.4738 6.8012461,-107.36502 C 7.4031623,-106.28788 8.1793216,-105.38501 9.1297261,-104.65638 C 10.08012,-103.92773 11.157239,-103.32581 12.361086,-102.85062 C 13.564916,-102.40709 14.800435,-102.02693 16.067646,-101.71014 C 17.303153,-101.36165 18.522831,-101.04485 19.726686,-100.75974 C 20.930509,-100.47461 22.007628,-100.14197 22.958046,-99.761824 C 23.908426,-99.381651 24.668745,-98.906452 25.239006,-98.336224 C 25.840904,-97.765973 26.141864,-97.021493 26.141886,-96.102784 C 26.141864,-95.247415 25.920104,-94.534616 25.476606,-93.964384 C 25.033065,-93.425817 24.478665,-92.998137 23.813406,-92.681344 C 23.148107,-92.364538 22.435307,-92.142778 21.675006,-92.016064 C 20.914669,-91.921019 20.20187,-91.873499 19.536606,-91.873504 C 18.554511,-91.873499 17.604112,-91.984378 16.685406,-92.206144 C 15.766674,-92.459578 14.958835,-92.823898 14.261886,-93.299104 C 13.596596,-93.805977 13.058037,-94.455416 12.646206,-95.247424 C 12.234358,-96.039414 12.028438,-97.005653 12.028446,-98.146144 M 53.106517,-86.883904 L 53.106517,-120.1479 L 47.736757,-120.1479 C 47.546664,-118.88067 47.150665,-117.81939 46.548757,-116.96406 C 45.946826,-116.10867 45.202347,-115.41172 44.315317,-114.87318 C 43.459948,-114.36628 42.477869,-114.00196 41.369077,-113.78022 C 40.291952,-113.59012 39.167313,-113.51092 37.995157,-113.54262 L 37.995157,-108.45798 L 46.358677,-108.45798 L 46.358677,-86.883904 L 53.106517,-86.883904"
       id="text22626" />
  </g>
</svg>

<svg xmlns="http://www.w3.org/2000/svg" width="64" height="64"><path d="M.787-136.128h64v64h-64z" style="opacity:1;fill:#f47216;fill-opacity:1;fill-rule:nonzero;stroke:none;stroke-width:7.0859999699999996;stroke-linecap:round;stroke-linejoin:round;stroke-miterlimit:4;stroke-dasharray:7.0860000000000003,14.172000000000001;stroke-dashoffset:0;stroke-opacity:1" transform="translate(-.787 136.128)"/><path d="M12.028-98.146H4.805q-.046 3.136 1.14 5.417 1.189 2.28 3.185 3.754 2.043 1.473 4.657 2.139a21 21 0 0 0 5.464.712q3.469 0 6.083-.807 2.66-.808 4.42-2.234 1.805-1.473 2.708-3.469t.903-4.324q0-2.85-1.236-4.657-1.188-1.854-2.85-2.946-1.664-1.094-3.375-1.568-1.664-.524-2.613-.713-3.185-.808-5.18-1.33-1.948-.524-3.089-1.046-1.093-.524-1.473-1.14-.38-.619-.38-1.616 0-1.094.475-1.806a4.2 4.2 0 0 1 1.188-1.188 5.1 5.1 0 0 1 1.663-.665 8.8 8.8 0 0 1 1.806-.19q1.378 0 2.519.237 1.188.237 2.09.808.903.57 1.426 1.568.57.998.665 2.519h7.223q0-2.947-1.14-4.99a9.46 9.46 0 0 0-2.994-3.421q-1.9-1.33-4.372-1.901a20.5 20.5 0 0 0-5.084-.618q-2.281 0-4.562.618-2.28.618-4.087 1.9a10.3 10.3 0 0 0-2.946 3.232q-1.093 1.9-1.093 4.514 0 2.329.855 3.992a8.7 8.7 0 0 0 2.329 2.709q1.425 1.092 3.231 1.805 1.806.666 3.707 1.14 1.853.524 3.659.951 1.805.428 3.231.998t2.281 1.426q.903.856.903 2.233 0 1.283-.665 2.139a4.8 4.8 0 0 1-1.664 1.283 8 8 0 0 1-2.138.665q-1.14.143-2.138.142-1.473 0-2.852-.332-1.377-.38-2.423-1.093a5.7 5.7 0 0 1-1.616-1.948q-.618-1.188-.618-2.9m41.079 11.263v-33.264h-5.37q-.285 1.901-1.188 3.184a7.4 7.4 0 0 1-2.234 2.09q-1.282.761-2.946 1.094-1.616.286-3.374.237v5.085h8.364v21.574z" style="font-size:47.52000046px;font-style:normal;font-variant:normal;font-weight:700;font-stretch:normal;text-align:start;line-height:125%;writing-mode:lr-tb;text-anchor:start;fill:#fff;fill-opacity:1;stroke:none;stroke-width:1px;stroke-linecap:butt;stroke-linejoin:miter;stroke-opacity:1;font-family:Helvetica Neue;-inkscape-font-specification:Helvetica Neue Bold" transform="translate(-.787 136.128)"/></svg>
